!!!OTL: スターラブレイション
**kern	**kern	**text	**kern	**text	**text	**kern	**text	**kern	**text
*part5	*part4	*part4	*part3	*part3	*part3	*part2	*part2	*part1	*part1
*staff5	*staff4	*staff4	*staff3	*staff3	*staff3	*staff2	*staff2	*staff1	*staff1
*I"ピアノ	*I"ピアノ	*	*I"ピアノ	*	*	*I"ピアノ	*	*I"ピアノ	*
*I'Pno.	*I'Pno.	*	*I'Pno.	*	*	*I'Pno.	*	*I'Pno.	*
*clefF4	*clefG2	*	*clefG2	*	*	*clefG2	*	*clefG2	*
*k[f#c#g#d#]	*k[f#c#g#d#]	*	*k[f#c#g#d#]	*	*	*k[f#c#g#d#]	*	*k[f#c#g#d#]	*
*M4/4	*M4/4	*	*M4/4	*	*	*M4/4	*	*M4/4	*
*MM144	*MM144	*	*MM144	*	*	*MM144	*	*MM144	*
=1	=1	=1	=1	=1	=1	=1	=1	=1	=1
1r	1r	.	1r	.	.	1r	.	2.r	.
.	.	.	.	.	.	.	.	4B	.
=2	=2	=2	=2	=2	=2	=2	=2	=2	=2
1EE	1B	.	1e	oh	.	1g#	.	8bL	ベ
.	.	.	.	.	.	.	.	8g#J	イ
.	.	.	.	.	.	.	.	4g#	ベイ
.	.	.	.	.	.	.	.	8g#L	ベ
.	.	.	.	.	.	.	.	8e	イ
.	.	.	.	.	.	.	.	8e	きょ
.	.	.	.	.	.	.	.	8f#J	う
=3	=3	=3	=3	=3	=3	=3	=3	=3	=3
1GG#	1cn	.	1d#	oh	.	1f#	.	8f#L	.
.	.	.	.	.	.	.	.	8g#	も
.	.	.	.	.	.	.	.	8a	あ
.	.	.	.	.	.	.	.	8aJ	す
.	.	.	.	.	.	.	.	4g#	も
.	.	.	.	.	.	.	.	8r	.
.	.	.	.	.	.	.	.	8B	踏
=4	=4	=4	=4	=4	=4	=4	=4	=4	=4
1C#	1B	.	1c#	uh	.	1e	.	8eL	み
.	.	.	.	.	.	.	.	8f#	だ
.	.	.	.	.	.	.	.	8g#	し
.	.	.	.	.	.	.	.	8aJ	て
.	.	.	.	.	.	.	.	4g#	ラス
.	.	.	.	.	.	.	.	8eL	ト
.	.	.	.	.	.	.	.	8f#J	シン
=5	=5	=5	=5	=5	=5	=5	=5	=5	=5
2BB	1B	.	1dn	uh	.	1e	.	8f#L	　
.	.	.	.	.	.	.	.	8f#	デ
.	.	.	.	.	.	.	.	8b	レ
.	.	.	.	.	.	.	.	8g#J	.
8r	.	.	.	.	.	.	.	4g#	ラ
8EEL	.	.	.	.	.	.	.	.	.
8E	.	.	.	.	.	.	.	8r	.
8EEJ	.	.	.	.	.	.	.	8e	ぶ
=6	=6	=6	=6	=6	=6	=6	=6	=6	=6
8AA	4.A	.	4.c#	tu	.	4.e	.	8bL	き
4AA	.	.	.	.	.	.	.	8b	よ
.	.	.	.	.	.	.	.	8b	う
8BB	[8B	.	[8d#	tu	.	[8f#	.	8bJ	な　
8r	2B]	.	2d#]	.	.	2f#]	.	8bL	あ
8BB	.	.	.	.	.	.	.	8a	い
8r	.	.	.	.	.	.	.	8g#	を
8BB	.	.	.	.	.	.	.	8aJ	か
=7	=7	=7	=7	=7	=7	=7	=7	=7	=7
8GG#	4.B	.	4.d#	tu	.	4.f#	.	8bL	か
4GG#	.	.	.	.	.	.	.	8b	げ
.	.	.	.	.	.	.	.	8ee	な
8C#	[8B	.	[8e	tu	.	[8g#	.	8dd#J	が
8r	2B]	.	2e]	.	.	2g#]	.	4ee	ら
8C#	.	.	.	.	.	.	.	.	.
8r	.	.	.	.	.	.	.	8r	.
8C#	.	.	.	.	.	.	.	8e	ず
=8	=8	=8	=8	=8	=8	=8	=8	=8	=8
4FF#	1c#	.	1e	ha	.	1a	.	4a	っ
8r	.	.	.	.	.	.	.	8g#L	と
8FF#	.	.	.	.	.	.	.	8f#J	か
8FF#L	.	.	.	.	.	.	.	8f#L	け
8FF#	.	.	.	.	.	.	.	8e	ぬ
8FF#	.	.	.	.	.	.	.	8e	け
8FF#J	.	.	.	.	.	.	.	8f#J	て
=9	=9	=9	=9	=9	=9	=9	=9	=9	=9
4BB	1B	.	1d#	ah	.	1f#	.	4g#	く
8r	.	.	.	.	.	.	.	8aL	つ
8BB	.	.	.	.	.	.	.	8g#J	よ
8BBL	.	.	.	.	.	.	.	4f#	く
8BB	.	.	.	.	.	.	.	.	.
8BB	.	.	.	.	.	.	.	8g#L	つ
8BBJ	.	.	.	.	.	.	.	8f#J	よ
=10	=10	=10	=10	=10	=10	=10	=10	=10	=10
[4AA	1A	.	2.c#	uh	.	1e	.	2e	く
8AAL]	.	.	.	.	.	.	.	.	.
8AAJ	.	.	.	.	.	.	.	.	.
8r	.	.	.	.	.	.	.	8r	.
4AA	.	.	.	.	.	.	.	4r	.
.	.	.	8r	.	.	.	.	.	.
8BB	.	.	8cn	　ス	.	.	.	8e	ス
=11	=11	=11	=11	=11	=11	=11	=11	=11	=11
1Cn	1r	.	4ccn	ター	.	1r	.	4ee	ター
.	.	.	8gnL	ラ	.	.	.	8ccnL	ラ
.	.	.	8gJ	ブ	.	.	.	8ccJ	ブ
.	.	.	8f#	レ	.	.	.	8cc	レ
.	.	.	4e	イ	.	.	.	4a	イ
.	.	.	8a	ショ	.	.	.	8cc	ショ
=12	=12	=12	=12	=12	=12	=12	=12	=12	=12
4EE	8e	ha	1g#	ン	.	8b	ha	1b	ン
.	8r	.	.	.	.	8r	.	.	.
8EEL	8e	.	.	.	.	8b	.	.	.
8EEJ	8r	.	.	.	.	8r	.	.	.
8EEL	8e	.	.	.	.	8b	.	.	.
8EE	8r	.	.	.	.	8r	.	.	.
8EE	8e	.	.	.	.	8b	.	.	.
8FF#J	8r	.	.	.	.	8r	.	.	.
=13	=13	=13	=13	=13	=13	=13	=13	=13	=13
8GG#L	4e	ru	8g#	ha	.	8b	.	1r	.
8GG#	.	.	8r	.	.	8r	.	.	.
8GG#	4e	ru	8g#	.	.	8b	.	.	.
8GG#J	.	.	8r	.	.	8r	.	.	.
8GG#L	8eL	ru	8g#	.	.	8b	.	.	.
8GG#	8f#	ru	8r	.	.	8r	.	.	.
8GG#	8e	ru	8g#	.	.	8b	.	.	.
8GG#J	8f#J	ru	8r	.	.	8r	.	.	.
=14	=14	=14	=14	=14	=14	=14	=14	=14	=14
4C#	2g#	ru	8e	ha	.	8b	.	1r	.
.	.	.	8r	.	.	8r	.	.	.
8C#L	.	.	8e	.	.	8b	.	.	.
8C#J	.	.	8r	.	.	8r	.	.	.
8C#L	8g#L	tu	8e	.	.	8b	.	.	.
8C#	8aJ	ru	8r	.	.	8r	.	.	.
8C#	8r	.	8e	.	.	8b	.	.	.
8C#J	8g#	tu	8r	.	.	8r	.	.	.
=15	=15	=15	=15	=15	=15	=15	=15	=15	=15
8EL	8r	.	8e	ha	.	8b	.	1r	.
8E	8f#	tu	8r	.	.	8r	.	.	.
8E	8r	.	8e	.	.	8r	.	.	.
[8BJ	[8e	tu	8r	.	.	8B	ru	.	.
8BL]	2e]	.	8e	.	.	8eL	ru	.	.
8A	.	.	8r	.	.	8d#	ru	.	.
8G#	.	.	8e	.	.	8e	ru	.	.
8EJ	.	.	8r	.	.	8f#J	ru	.	.
=16	=16	=16	=16	=16	=16	=16	=16	=16	=16
4AA	4.c#	tu	4.e	tu	.	4b	la	1r	.
8AA	.	.	.	.	.	4b	la	.	.
4BB	[8d#	.	[8f#	tu	.	.	.	.	.
.	2d#]	.	2f#]	.	.	8bL	la	.	.
8BBL	.	.	.	.	.	8g#J	la	.	.
8BB	.	.	.	.	.	8r	.	.	.
8BBJ	.	.	.	.	.	8cc#	ta	.	.
=17	=17	=17	=17	=17	=17	=17	=17	=17	=17
4GG#	4.d#	tu	4.f#	tu	.	8r	.	1r	.
.	.	.	.	.	.	8cc#	ta	.	.
8GG#	.	.	.	.	.	8r	.	.	.
4C#	[8B	.	[8g#	tu	.	8e	tu	.	.
.	2B]	.	4g#]	.	.	4e	tu	.	.
8C#L	.	.	.	.	.	.	.	.	.
8C#	.	.	4B	uh	.	4r	.	.	.
8C#J	.	.	.	.	.	.	.	.	.
=18	=18	=18	=18	=18	=18	=18	=18	=18	=18
4Dn	1A	uh	4a	la	.	1f#	uh	1r	.
8DL	.	.	4g#	.	.	.	.	.	.
8DJ	.	.	.	.	.	.	.	.	.
8DL	.	.	4f#	.	.	.	.	.	.
8D	.	.	.	.	.	.	.	.	.
8D	.	.	4e	.	.	.	.	.	.
8C#J	.	.	.	.	.	.	.	.	.
=19	=19	=19	=19	=19	=19	=19	=19	=19	=19
4BB	1B	uh	[2e	uh	.	1c#	uh	1r	.
8BBL	.	.	.	.	.	.	.	.	.
8BBJ	.	.	.	.	.	.	.	.	.
8BBL	.	.	8eL]	.	.	.	.	.	.
8BB	.	.	8d#	tu	.	.	.	.	.
8BB	.	.	8e	ru	.	.	.	.	.
8AAJ	.	.	8g#J	ru	.	.	.	.	.
=20	=20	=20	=20	=20	=20	=20	=20	=20	=20
8r	8r	.	8r	.	.	8r	.	8r	.
8BB	8d#	.	8f#	ta	.	8b	.	4r	.
2BB	2d#	.	2f#	ta	.	2b	.	.	.
.	.	.	.	.	.	.	.	8B	素
.	.	.	.	.	.	.	.	8BL	な
.	.	.	.	.	.	.	.	8B	お
4r	4r	.	4r	.	.	4r	.	8e	に
.	.	.	.	.	.	.	.	8eJ	な
=21	=21	=21	=21	=21	=21	=21	=21	=21	=21
8EEL	1r	.	1r	.	.	1r	.	8f#	っ
8EE	.	.	.	.	.	.	.	8r	.
8EE	.	.	.	.	.	.	.	8eL	て
8EEJ	.	.	.	.	.	.	.	8eJ	い
8EEL	.	.	.	.	.	.	.	4d#	いん
8EE	.	.	.	.	.	.	.	.	.
8EE	.	.	.	.	.	.	.	8eL	だ
8EEJ	.	.	.	.	.	.	.	8eJ	よ
=22	=22	=22	=22	=22	=22	=22	=22	=22	=22
8EEL	8r	.	4r	.	.	8r	.	4e	　
8EE	[8B	tun	.	.	.	4r	.	.	.
8EEJ	2.B]	.	2.e	tun	.	.	.	8r	.
4EE	.	.	.	.	.	[8g#	tun	8B	き
.	.	.	.	.	.	2g#]	.	8BL	み
8EEL	.	.	.	.	.	.	.	8A	は
8EE	.	.	.	.	.	.	.	8G#	そ
8EEJ	.	.	.	.	.	.	.	8AJ	う
=23	=23	=23	=23	=23	=23	=23	=23	=23	=23
8GG#L	1r	.	1r	.	.	1r	.	8B	言っ
8GG#	.	.	.	.	.	.	.	8r	.
8GG#	.	.	.	.	.	.	.	8eL	て
8GG#J	.	.	.	.	.	.	.	8eJ	ほ
8GG#L	.	.	.	.	.	.	.	8f#L	ほ
8GG#	.	.	.	.	.	.	.	8f#	え
8GG#	.	.	.	.	.	.	.	8e	む
8GG#J	.	.	.	.	.	.	.	8g#J	の
=24	=24	=24	=24	=24	=24	=24	=24	=24	=24
8GG#L	8r	.	4r	.	.	8r	.	4g#	.
8GG#	[8B	tun	.	.	.	4r	.	.	.
8GG#J	2.B]	.	2.d#	tun	.	.	.	8r	.
4GG#	.	.	.	.	.	[8g#	tun	8g#	ま
.	.	.	.	.	.	2g#]	.	8aL	よ
8GG#L	.	.	.	.	.	.	.	8g#	な
8GG#	.	.	.	.	.	.	.	8f#	か
8GG#J	.	.	.	.	.	.	.	8eJ	の
=25	=25	=25	=25	=25	=25	=25	=25	=25	=25
8C#L	1r	.	1r	.	.	8aL	ラ	8f#L	ラ
8C#	.	.	.	.	.	8g#J	ブ	8eJ	ブ
8C#J	.	.	.	.	.	4b	ストー	4g#	ストー
4C#	.	.	.	.	.	.	.	.	.
.	.	.	.	.	.	8a	リ	8f#	リ
8C#L	.	.	.	.	.	4g#	ー	4e	ー
8C#	.	.	.	.	.	.	.	.	.
8C#J	.	.	.	.	.	8r	.	8r	.
=26	=26	=26	=26	=26	=26	=26	=26	=26	=26
8BBL	1r	.	1r	.	.	8aL	泣	8f#L	泣
8BB	.	.	.	.	.	8g#J	き	8eJ	き
8BBJ	.	.	.	.	.	4b	そ	4g#	そ
4BB	.	.	.	.	.	.	.	.	.
.	.	.	.	.	.	8a	う	8f#	う
8BBL	.	.	.	.	.	4g#	に	4e	に
8BB	.	.	.	.	.	.	.	.	.
8BBJ	.	.	.	.	.	8r	.	8r	.
=27	=27	=27	=27	=27	=27	=27	=27	=27	=27
8AAL	1r	.	1r	.	.	1r	.	8r	.
8AA	.	.	.	.	.	.	.	8eL	な
8AA	.	.	.	.	.	.	.	8e	み
8AAJ	.	.	.	.	.	.	.	8c#J	だ
8AAL	.	.	.	.	.	.	.	8eL	を
8AA	.	.	.	.	.	.	.	8c#	こ
8BB	.	.	.	.	.	.	.	8c#	ら
[8CnJ	.	.	.	.	.	.	.	[8gnJ	え
=28	=28	=28	=28	=28	=28	=28	=28	=28	=28
8CL]	1r	.	2r	.	.	1r	.	8gL]	.
8Cn	.	.	.	.	.	.	.	8gn	て
8C	.	.	.	.	.	.	.	8a	る
8BBJ	.	.	.	.	.	.	.	8f#J	ん
8BBL	.	.	4r	.	.	.	.	4f#	だ
8BBJ	.	.	.	.	.	.	.	.	.
4BB	.	.	8r	.	.	.	.	8r	.
.	.	.	8e	分	.	.	.	8B	分
=29	=29	=29	=29	=29	=29	=29	=29	=29	=29
8EEL	1B	ha	8a	.	かっ	1g#	ha	8f#	かっ
8EE	.	.	8r	.	.	.	.	8r	.
8EE	.	.	8g#L	.	て	.	.	8eL	て
8EEJ	.	.	8g#J	.	い	.	.	8eJ	い
8EEL	.	.	4f#	.	るん	.	.	4d#	るん
8EE	.	.	.	.	.	.	.	.	.
8EE	.	.	8g#L	.	だ	.	.	8eL	だ
8EEJ	.	.	[8g#J	.	よ	.	.	[8eJ	よ
=30	=30	=30	=30	=30	=30	=30	=30	=30	=30
8EEL	4.B	uh	4g#]	.	.	4.e	uh	4e]	.
8EE	.	.	.	.	.	.	.	.	.
8GG#	.	.	4r	.	.	.	.	8r	.
8EEJ	[8e	.	.	.	.	[8f#	.	8B	だ
8AAL	4e]	.	2r	.	.	4f#]	.	8BL	い
8EE	.	.	.	.	.	.	.	8A	じょ
8BB	4e	.	.	.	.	4g#	.	8G#	う
8EEJ	.	.	.	.	.	.	.	8AJ	ぶ
=31	=31	=31	=31	=31	=31	=31	=31	=31	=31
8GG#L	1B	.	1d#	uh	.	1f#	.	8BL	が
8GG#	.	.	.	.	.	.	.	8B	く
8GG#	.	.	.	.	.	.	.	8e	ち
8GG#J	.	.	.	.	.	.	.	8eJ	ぐ
8GG#L	.	.	.	.	.	.	.	8f#L	せ
8GG#	.	.	.	.	.	.	.	8f#	な
8GG#	.	.	.	.	.	.	.	8e	の
8GG#J	.	.	.	.	.	.	.	8g#J	は
=32	=32	=32	=32	=32	=32	=32	=32	=32	=32
8GG#L	8r	.	4r	.	.	8r	.	4g#	.
8Cn	[8d#	tuh	.	.	.	4r	.	.	.
8D#J	2.d#]	.	2.f#	tun	.	.	.	8r	.
4G#	.	.	.	.	.	[8ccn	tun	8g#	こ
.	.	.	.	.	.	2cc]	.	8aL	の
8D#L	.	.	.	.	.	.	.	8g#	さ
8C	.	.	.	.	.	.	.	8f#	き
8GG#J	.	.	.	.	.	.	.	8eJ	は
=33	=33	=33	=33	=33	=33	=33	=33	=33	=33
8C#L	4.G#	tu	4.e	tu	.	8aL	ラ	8f#L	ラ
8C#	.	.	.	.	.	8g#J	ブ	8eJ	ブ
8C#J	.	.	.	.	.	4b	ストー	4g#	ストー
4C#	[8G#	.	[8e	tu	.	.	.	.	.
.	2G#]	.	2e]	.	.	8aL	リ	8f#L	リ
8C#L	.	.	.	.	.	8g#	ー	8e	ー
8C#	.	.	.	.	.	8g#	そ	8e	そ
8C#J	.	.	.	.	.	8g#J	れ	8eJ	れ
=34	=34	=34	=34	=34	=34	=34	=34	=34	=34
8BBL	4.G#	tu	4.e	tu	.	8aL	と	8f#L	と
8BB	.	.	.	.	.	8g#J	も	8eJ	も
8BBJ	.	.	.	.	.	4b	ソー	4g#	ソー
4BB	[8G#	.	[8e	tu	.	.	.	.	.
.	2G#]	.	2e]	.	.	8a	リ	8f#	リ
8BBL	.	.	.	.	.	4g#	ー	4e	ー
8BB	.	.	.	.	.	.	.	.	.
8BBJ	.	.	.	.	.	8r	.	8r	.
=35	=35	=35	=35	=35	=35	=35	=35	=35	=35
8AAL	2.A	.	2.c#	uh	.	2.e	.	8r	.
8AA	.	.	.	.	.	.	.	8eL	あ
8AA	.	.	.	.	.	.	.	8e	ま
8AAJ	.	.	.	.	.	.	.	8c#J	い
8AAL	.	.	.	.	.	.	.	8eL	よう
8AA	.	.	.	.	.	.	.	8c#	で
8BB	8r	.	8r	.	.	8r	.	8c#	ス
[8CnJ	[8Gn	.	[8cn	uh	.	[8e	.	[8gnJ	パ
=36	=36	=36	=36	=36	=36	=36	=36	=36	=36
8CL]	4.G]	.	4.c]	.	.	4.e]	.	8gL]	.
8Cn	.	.	.	.	.	.	.	8a	イ
8C	.	.	.	.	.	.	.	8gn	シ
8CJ	[8A	.	[8B	uh	.	[8d#	.	8gJ	ー
8BBL	2A]	.	2B]	.	.	2d#]	.	4f#	.
8BBJ	.	.	.	.	.	.	.	.	.
4BB	.	.	.	.	.	.	.	4r	.
=37	=37	=37	=37	=37	=37	=37	=37	=37	=37
[4AA	1A	.	1c#	uh	.	1e	.	8r	.
.	.	.	.	.	.	.	.	4r	.
8AAL]	.	.	.	.	.	.	.	.	.
8AAJ	.	.	.	.	.	.	.	8e	ド
2AA	.	.	.	.	.	.	.	8eL	ラ
.	.	.	.	.	.	.	.	8c#	マ
.	.	.	.	.	.	.	.	8c#	チ
.	.	.	.	.	.	.	.	8eJ	ッ
=38	=38	=38	=38	=38	=38	=38	=38	=38	=38
[4BB	1A	.	1d#	uh	.	1f#	.	4d#	ク
8BBL]	.	.	.	.	.	.	.	8e	な
8BBJ	.	.	.	.	.	.	.	4f#	こ
2BB	.	.	.	.	.	.	.	.	.
.	.	.	.	.	.	.	.	4d#	い
.	.	.	.	.	.	.	.	[8B	も
=39	=39	=39	=39	=39	=39	=39	=39	=39	=39
[4E	1B	.	1e	ha	.	2g#	ha	4B]	.
8EL]	.	.	.	.	.	.	.	8r	.
8EJ	.	.	.	.	.	.	.	8B	チュ
4D#	.	.	.	.	.	2f#	ah	8aL	ー
.	.	.	.	.	.	.	.	8g#	ル
4BB	.	.	.	.	.	.	.	8f#	ド
.	.	.	.	.	.	.	.	8eJ	レ
=40	=40	=40	=40	=40	=40	=40	=40	=40	=40
4C#	1B	.	2c#	uh	.	1e	uh	4c#	ス
4D#	.	.	.	.	.	.	.	4e	す
4E	.	.	2B	.	.	.	.	4f#	が
4GG#	.	.	.	.	.	.	.	8eL	た
.	.	.	.	.	.	.	.	[8g#J	も
=41	=41	=41	=41	=41	=41	=41	=41	=41	=41
8FF#L	2A	.	1c#	uh	.	1e	.	4g#]	.
8FF#	.	.	.	.	.	.	.	.	.
8FF#	.	.	.	.	.	.	.	8r	.
8FF#J	.	.	.	.	.	.	.	8e	ぬ
8FF#L	2c#	.	.	.	.	.	.	8eL	ぎ
8FF#	.	.	.	.	.	.	.	8B	す
8FF#	.	.	.	.	.	.	.	8e	て
8FF#J	.	.	.	.	.	.	.	8f#J	て
=42	=42	=42	=42	=42	=42	=42	=42	=42	=42
8GG#L	2B	.	1d#	uh	.	1f#	.	4g#	こ
8GG#	.	.	.	.	.	.	.	.	.
8GG#	.	.	.	.	.	.	.	4a	こ
8GG#J	.	.	.	.	.	.	.	.	.
8GG#L	2d#	.	.	.	.	.	.	4b	ま
8GG#	.	.	.	.	.	.	.	.	.
8GG#	.	.	.	.	.	.	.	4e	で
8GG#J	.	.	.	.	.	.	.	.	.
=43	=43	=43	=43	=43	=43	=43	=43	=43	=43
8AAL	1c#	oh	4r	.	.	2r	.	8eL	ぜ
8AA	.	.	.	.	.	.	.	8c#	ん
8AA	.	.	2.e	oh	.	.	.	8e	そ
8AAJ	.	.	.	.	.	.	.	8c#J	く
8AAL	.	.	.	.	.	2a	oh	4e	りょ
8AA	.	.	.	.	.	.	.	.	.
8AA	.	.	.	.	.	.	.	8g#L	く
8AAJ	.	.	.	.	.	.	.	8g#J	で
=44	=44	=44	=44	=44	=44	=44	=44	=44	=44
8.BBL	2B	uh	8.bL	ta	.	2d#	uh	2f#	.
[16FF#Jk	.	.	[16f#Jk	la	.	.	.	.	.
8FF#L]	.	.	8f#L]	.	.	.	.	.	.
8BBJ	.	.	8g#J	.	.	.	.	.	.
8.BBL	2c#	.	8.aL	.	.	2e	.	2r	.
[16BBJk	.	.	[16g#Jk	.	.	.	.	.	.
8BBL]	.	.	8g#L]	.	.	.	.	.	.
8BBJ	.	.	8aJ	.	.	.	.	.	.
=45	=45	=45	=45	=45	=45	=45	=45	=45	=45
2BB	2d#	ha	2b	ha	.	8r	.	4r	.
.	.	.	.	.	.	8bL	き	.	.
.	.	.	.	.	.	8b	た	2r	.
.	.	.	.	.	.	8g#J	ん	.	.
2r	2r	.	2r	.	.	8cc#L	だ	.	.
.	.	.	.	.	.	8bJ	よ	.	.
.	.	.	.	.	.	4r	.	4B	オウ
=46	=46	=46	=46	=46	=46	=46	=46	=46	=46
4EE	8B	.	8g#	ha	.	4ee	ベイ	4b	ベイ
.	8r	.	8r	.	.	.	.	.	.
8EEL	8B	.	8g#	.	.	4b	ベイ	4g#	ベイ
8EEJ	8r	.	8r	.	.	.	.	.	.
8EEL	8B	.	8g#	.	.	4b	ベイ	4g#	ベイ
8EE	8r	.	8r	.	.	.	.	.	.
8EE	8B	.	8g#	.	.	8g#L	きょ	8eL	きょ
8FF#J	8r	.	8r	.	.	[8aJ	う	[8f#J	う
=47	=47	=47	=47	=47	=47	=47	=47	=47	=47
8GG#L	8cn	.	8e	ha	.	8aL]	.	8f#L]	.
8GG#	8r	.	8r	.	.	8b	も	8g#	も
8GG#	8c	.	8e	.	.	8cc#	あ	8a	あ
8GG#J	8r	.	8r	.	.	8cc#J	す	8aJ	す
8GG#L	8c	.	4f#	tu	.	4b	も	4g#	も
8GG#	8r	.	.	.	.	.	.	.	.
8GG#	8c	.	8d#L	ru	.	8r	.	8r	.
8GG#J	8r	.	8f#J	ru	.	8e	ふ	8B	ふ
=48	=48	=48	=48	=48	=48	=48	=48	=48	=48
4C#	8c#	ru	8e	ru	.	8g#L	み	8eL	み
.	8r	.	8r	.	.	8a	だ	8f#	だ
8C#L	8c#	.	8e	.	.	8b	し	8g#	し
8C#J	8r	.	8r	.	.	8eeJ	て	8aJ	て
8C#L	8c#	.	8e	.	.	8bL	ラ	8g#L	ラ
8C#	8r	.	8r	.	.	8g#	ス	8e	ス
8C#	8c#	.	8e	.	.	8g#	ト	8e	ト
8C#J	8r	.	8r	.	.	[8aJ	シン	[8f#J	シン
=49	=49	=49	=49	=49	=49	=49	=49	=49	=49
8EL	4e	tu	8e	ru	.	8aL]	.	8f#L]	.
8E	.	.	8r	.	.	8aJ	デ	8f#J	デ
8EJ	4f#	ru	8e	.	.	4dd#	レ	4b	レ
4B	.	.	8r	.	.	.	.	.	.
.	4e	ru	8e	.	.	4b	ラ	4g#	ラ
8AL	.	.	8r	.	.	.	.	.	.
8G#	4d#	ru	4cc#	ha	.	4r	.	8r	.
8EJ	.	.	.	.	.	.	.	8B	な
=50	=50	=50	=50	=50	=50	=50	=50	=50	=50
4AA	4.c#	tu	2.b	ah	.	4r	.	8b	き
.	.	.	.	.	.	.	.	4b	わ
8AA	.	.	.	.	.	2r	.	.	.
4BB	[8d#	tu	.	.	.	.	.	8b	ら
.	2d#]	.	.	.	.	.	.	8bL	い
8BBL	.	.	.	.	.	.	.	8a	な
8BB	.	.	4r	.	.	4ee	fu	8g#	が
8BBJ	.	.	.	.	.	.	.	8aJ	ら
=51	=51	=51	=51	=51	=51	=51	=51	=51	=51
4GG#	4.d#	.	4.f#	tu	.	4.dd#	uh	8bL	み
.	.	.	.	.	.	.	.	8b	る
8GG#	.	.	.	.	.	.	.	8cc#	そ
4C#	[8e	.	[8g#	tu	.	[8b	.	8eJ	ら
.	2e]	.	2g#]	.	.	4b]	.	4e	は
8C#L	.	.	.	.	.	.	.	.	.
8C#	.	.	.	.	.	8g#L	uh	8r	.
8C#J	.	.	.	.	.	[8bJ	.	8B	さ
=52	=52	=52	=52	=52	=52	=52	=52	=52	=52
4FF#	1r	.	1r	.	.	1b]	.	4a	い
8FF#L	.	.	.	.	.	.	.	8g#L	こ
8FF#J	.	.	.	.	.	.	.	8f#J	う
8FF#L	.	.	.	.	.	.	.	8f#L	に
8FF#	.	.	.	.	.	.	.	8e	.
8FF#	.	.	.	.	.	.	.	8e	う
[8BBJ	.	.	.	.	.	.	.	8f#J	つ
=53	=53	=53	=53	=53	=53	=53	=53	=53	=53
8BB]	1d#	.	1f#	ha	.	1b	ha	4g#	く
4BB	.	.	.	.	.	.	.	.	.
.	.	.	.	.	.	.	.	8aL	し
8BB	.	.	.	.	.	.	.	8g#J	ん
8BBL	.	.	.	.	.	.	.	4f#	だ
8C#	.	.	.	.	.	.	.	.	.
8D#	.	.	.	.	.	.	.	4B	オウ
8BBJ	.	.	.	.	.	.	.	.	.
=54	=54	=54	=54	=54	=54	=54	=54	=54	=54
4EE	8B	.	8g#	ha	.	4ee	ベイ	4b	ベイ
.	8r	.	8r	.	.	.	.	.	.
8EEL	8B	.	8g#	.	.	4b	ベイ	4g#	ベイ
8EEJ	8r	.	8r	.	.	.	.	.	.
8EEL	8B	.	8g#	.	.	4b	ベイ	4g#	ベイ
8EE	8r	.	8r	.	.	.	.	.	.
8EE	8B	.	8g#	.	.	8g#L	む	8eL	む
8FF#J	8r	.	8r	.	.	[8aJ	ね	[8f#J	ね
=55	=55	=55	=55	=55	=55	=55	=55	=55	=55
8GG#L	8cn	.	8e	ha	.	8aL]	.	8f#L]	.
8GG#	8r	.	8r	.	.	8b	の	8g#	の
8GG#	8c	.	8e	.	.	8cc#	な	8a	な
8GG#J	8r	.	8r	.	.	8cc#J	か	8aJ	か
8GG#L	8c	.	4f#	tu	.	4b	の	4g#	の
8GG#	8r	.	.	.	.	.	.	.	.
8GG#	8c	.	8d#L	ru	.	8r	.	8r	.
8GG#J	8r	.	8f#J	ru	.	8e	お	8B	お
=56	=56	=56	=56	=56	=56	=56	=56	=56	=56
4C#	8c#	ru	8e	ru	.	8g#L	も	8bL	も
.	8r	.	8r	.	.	8a	い	8g#	い
8C#L	8c#	.	8e	.	.	8b	よ	8g#	よ
8C#J	8r	.	8r	.	.	8eeJ	た	8g#J	た
8C#L	8c#	.	8e	.	.	8bL	か	8f#L	か
8EJ	8r	.	8r	.	.	8g#	く	8e	く
8r	8c#	.	8e	.	.	8g#	ま	8e	ま
8FF#	8r	.	8r	.	.	8aJ	い	[8f#J	い
=57	=57	=57	=57	=57	=57	=57	=57	=57	=57
8EEL	4B	ru	4e	ru	.	8aL	.	8f#L]	.
8EE	.	.	.	.	.	8aJ	あ	8f#J	あ
8FF#	4B	.	4f#	.	.	4dd#	が	4b	が
8FF#J	.	.	.	.	.	.	.	.	.
8GG#L	4e	.	4g#	.	.	4b	れ	4g#	れ
8GG#	.	.	.	.	.	.	.	.	.
8EE	4d#	.	4cc#	ha	.	4r	.	8r	.
8EEJ	.	.	.	.	.	.	.	8B	ぶ
=58	=58	=58	=58	=58	=58	=58	=58	=58	=58
4AA	4.c#	tu	2.b	ah	.	4r	.	8b	き
.	.	.	.	.	.	.	.	4b	よう
8AA	.	.	.	.	.	2r	.	.	.
4BB	[8d#	tu	.	.	.	.	.	8b	な
.	2d#]	.	.	.	.	.	.	8bL	あ
8BBL	.	.	.	.	.	.	.	8a	い
8BB	.	.	4r	.	.	4ee	fu	8g#	を
8BBJ	.	.	.	.	.	.	.	8aJ	か
=59	=59	=59	=59	=59	=59	=59	=59	=59	=59
4Cn	4.d#	.	4.f#	tu	.	4.dd#	uh	8bL	か
.	.	.	.	.	.	.	.	8b	げ
8C	.	.	.	.	.	.	.	8ee	な
4C#X	[8e	.	[8g#	tu	.	[8b	.	8dd#J	が
.	2e]	.	2g#]	.	.	4b]	.	4ee	ら
8C#L	.	.	.	.	.	.	.	.	.
8C#	.	.	.	.	.	8g#L	.	8r	.
8C#J	.	.	.	.	.	[8bJ	.	8B	ず
=60	=60	=60	=60	=60	=60	=60	=60	=60	=60
4FF#	1c#	.	1a	uh	.	1b]	.	4a	っ
8FF#L	.	.	.	.	.	.	.	8g#L	と
8FF#J	.	.	.	.	.	.	.	8f#J	か
8FF#L	.	.	.	.	.	.	.	8f#L	け
8FF#	.	.	.	.	.	.	.	8e	ぬ
8FF#	.	.	.	.	.	.	.	8e	け
8FF#J	.	.	.	.	.	.	.	8f#J	て
=61	=61	=61	=61	=61	=61	=61	=61	=61	=61
4BB	1d#	.	1f#	uh	.	4r	.	4g#	く
8BBL	.	.	.	.	.	8cc#L	つ	8aL	つ
8BBJ	.	.	.	.	.	8bJ	よ	8g#J	よ
8BBL	.	.	.	.	.	4a	く	4f#	く
8BB	.	.	.	.	.	.	.	.	.
8BB	.	.	.	.	.	8bL	つ	8g#L	つ
8AA#XJ	.	.	.	.	.	8aJ	よ	8f#J	よ
=62	=62	=62	=62	=62	=62	=62	=62	=62	=62
[4AA	1c#	.	2.e	uh	.	1g#	く	2e	く
8AAL]	.	.	.	.	.	.	.	.	.
8AAJ	.	.	.	.	.	.	.	.	.
8r	.	.	.	.	.	.	.	8r	.
4AA	.	.	.	.	.	.	.	4r	.
.	.	.	8r	.	.	.	.	.	.
8BB	.	.	8cn	ス	.	.	.	8e	ス
=63	=63	=63	=63	=63	=63	=63	=63	=63	=63
1Cn	1r	.	4ccn	ター	.	1r	.	4ee	ター
.	.	.	8gnL	ラ	.	.	.	8ccnL	ラ
.	.	.	8gJ	ブ	.	.	.	8ccJ	ブ
.	.	.	8f#	レ	.	.	.	8cc	レ
.	.	.	4e	イ	.	.	.	4a	イ
.	.	.	8a	ショ	.	.	.	8cc	ショ
=64	=64	=64	=64	=64	=64	=64	=64	=64	=64
[1E	4B	.	4e	tu	.	4g#	.	1b	ン
.	8r	.	8r	.	.	8r	.	.	.
.	8B	.	8d#	.	.	8f#	.	.	.
.	4B	.	4d#	.	.	4f#	.	.	.
.	8r	.	8r	.	.	8r	.	.	.
.	8A	.	8dn	tu	.	8a	.	.	.
=65	=65	=65	=65	=65	=65	=65	=65	=65	=65
1E]	8r	.	8r	.	.	8r	.	1r	.
.	8A	.	8dn	.	.	8a	.	.	.
.	8r	.	8r	.	.	8r	.	.	.
.	8A	.	8B	.	.	8g#	.	.	.
.	4A	.	4B	.	.	4g#	.	.	.
.	4r	.	4r	.	.	4r	.	.	.
=66	=66	=66	=66	=66	=66	=66	=66	=66	=66
[1EE	4B	.	4e	tu	.	4g#	.	1r	.
.	8r	.	8r	.	.	8r	.	.	.
.	8B	.	8d#	.	.	8f#	.	.	.
.	4B	.	4d#	.	.	4f#	.	.	.
.	8r	.	8r	.	.	8r	.	.	.
.	8dn	.	8f#	tu	.	8a	.	.	.
=67	=67	=67	=67	=67	=67	=67	=67	=67	=67
1EE]	8r	.	8r	.	.	8r	.	8r	.
.	8dn	.	8f#	.	.	8a	.	2r	.
.	8r	.	8r	.	.	8r	.	.	.
.	8c#	.	8e	.	.	8a	.	.	.
.	4c#	.	4e	.	.	4a	.	.	.
.	.	.	.	.	.	.	.	8BL	na
.	4r	.	4r	.	.	4r	.	8c#	na
.	.	.	.	.	.	.	.	8eJ	na
=68	=68	=68	=68	=68	=68	=68	=68	=68	=68
4E	1r	.	1r	.	.	8r	.	8r	.
.	.	.	.	.	.	8BL	na	2r	.
8r	.	.	.	.	.	8c#	na	.	.
8BB	.	.	.	.	.	8eJ	na	.	.
4BB	.	.	.	.	.	2r	.	.	.
.	.	.	.	.	.	.	.	8BL	na
8BBL	.	.	.	.	.	.	.	8c#	na
8DnJ	.	.	.	.	.	.	.	8BJ	na
=69	=69	=69	=69	=69	=69	=69	=69	=69	=69
8r	1r	.	8r	.	.	1r	.	8r	.
8Dn	.	.	8BL	na	.	.	.	2r	.
8r	.	.	8c#	na	.	.	.	.	.
8C#	.	.	8BJ	na	.	.	.	.	.
4BB	.	.	2r	.	.	.	.	.	.
.	.	.	.	.	.	.	.	8BL	na
4AA	.	.	.	.	.	.	.	8c#	na
.	.	.	.	.	.	.	.	8eJ	na
=70	=70	=70	=70	=70	=70	=70	=70	=70	=70
4E	8r	.	1r	.	.	1r	.	8r	.
.	8BL	na	.	.	.	.	.	2r	.
8r	8c#	na	.	.	.	.	.	.	.
8BB	8eJ	na	.	.	.	.	.	.	.
4BB	2r	.	.	.	.	.	.	.	.
.	.	.	.	.	.	.	.	8BL	na
8BBL	.	.	.	.	.	.	.	8c#	na
8DnJ	.	.	.	.	.	.	.	8BJ	na
=71	=71	=71	=71	=71	=71	=71	=71	=71	=71
8r	8r	.	8r	.	.	8r	.	8r	.
8Dn	8AL	.	8BL	na	.	8eL	.	2r	.
8r	8A	.	8c#	na	.	8f#	.	.	.
8C#	8AJ	.	8BJ	na	.	8eJ	.	.	.
4BB	2r	.	2r	.	.	2r	.	.	.
.	.	.	.	.	.	.	.	8BL	na
4AA	.	.	.	.	.	.	.	8c#	na
.	.	.	.	.	.	.	.	8eJ	na
=72	=72	=72	=72	=72	=72	=72	=72	=72	=72
4E	8e	ha	8r	.	.	8g#	ha	8r	.
.	8r	.	8BL	na	.	8r	.	2r	.
8r	8e	.	8c#	na	.	8g#	.	.	.
8BB	8r	.	8eJ	na	.	8r	.	.	.
4BB	8e	.	2r	.	.	8g#	.	.	.
.	8r	.	.	.	.	8r	.	8BL	na
8BBL	8e	.	.	.	.	8g#	.	8c#	na
8DnJ	8r	.	.	.	.	8r	.	8BJ	na
=73	=73	=73	=73	=73	=73	=73	=73	=73	=73
8r	8f#	ha	8r	.	.	8a	ha	8r	.
8Dn	8r	.	8BL	na	.	8r	.	2r	.
8r	8f#	.	8c#	na	.	8a	.	.	.
8C#	8r	.	8BJ	na	.	8r	.	.	.
4BB	8f#	.	2r	.	.	8a	.	.	.
.	8r	.	.	.	.	8r	.	8BL	na
4AA	8f#	.	.	.	.	8a	.	8c#	na
.	8r	.	.	.	.	8r	.	[8BJ	na
=74	=74	=74	=74	=74	=74	=74	=74	=74	=74
8FF#L	2A	tu	8r	.	.	8b	tu	4B]	.
8FF#	.	.	8eL	ru	.	8r	.	.	.
8FF#	.	.	8e	ru	.	8b	tu	4r	.
8FF#J	.	.	8eJ	ru	.	4r	.	.	.
8FF#L	4.c#	ru	8eL	tu	.	.	.	2r	.
8FF#	.	.	8d#	ru	.	8f#L	tu	.	.
8FF#	.	.	8e	ru	.	8cc#	ru	.	.
8FF#J	[8d#	ru	[8f#J	ru	.	[8bJ	ru	.	.
=75	=75	=75	=75	=75	=75	=75	=75	=75	=75
8r	8d#L]	.	1f#]	.	.	1b]	.	1r	.
8BBL	8B	tu	.	.	.	.	.	.	.
8C#	8e	ru	.	.	.	.	.	.	.
[8D#J	[8d#J	ru	.	.	.	.	.	.	.
8D#L]	4d#]	.	.	.	.	.	.	.	.
8E	.	.	.	.	.	.	.	.	.
8F#	4B	ru	.	.	.	.	.	.	.
8BBJ	.	.	.	.	.	.	.	.	.
=76	=76	=76	=76	=76	=76	=76	=76	=76	=76
[4AA	1A	.	1c#	uh	.	2e	.	8r	.
.	.	.	.	.	.	.	.	4r	.
8AAL]	.	.	.	.	.	.	.	.	.
8AAJ	.	.	.	.	.	.	.	8e	く
2AA	.	.	.	.	.	2g#	.	8eL	も
.	.	.	.	.	.	.	.	8c#	ひ
.	.	.	.	.	.	.	.	8c#	と
.	.	.	.	.	.	.	.	8eJ	つ
=77	=77	=77	=77	=77	=77	=77	=77	=77	=77
[4BB	1A	.	1d#	uh	.	2f#	.	4d#	な
8BBL]	.	.	.	.	.	.	.	8e	い
8BBJ	.	.	.	.	.	.	.	4f#	そ
2BB	.	.	.	.	.	2b	.	.	.
.	.	.	.	.	.	.	.	4d#	ら
.	.	.	.	.	.	.	.	[8B	に
=78	=78	=78	=78	=78	=78	=78	=78	=78	=78
[4E	2B	.	2g#	ha	.	4r	.	4B]	.
8EL]	.	.	.	.	.	4b	ha	8r	.
8EJ	.	.	.	.	.	.	.	8B	りょ
4D#	2d#	.	2f#	ha	.	4r	.	8aL	う
.	.	.	.	.	.	.	.	8g#	て
4BB	.	.	.	.	.	4b	ha	8f#	い
.	.	.	.	.	.	.	.	8eJ	っ
=79	=79	=79	=79	=79	=79	=79	=79	=79	=79
4C#	2e	.	2g#	ah	.	4r	.	4c#	ぱ
4D#	.	.	.	.	.	4ee	fu	4e	い
4E	2d#	.	2b	ah	.	4dd#	uh	4f#	の
4GG#	.	.	.	.	.	4b	uh	8eL	あ
.	.	.	.	.	.	.	.	[8g#J	い
=80	=80	=80	=80	=80	=80	=80	=80	=80	=80
8FF#L	2c#	uh	1e	uh	.	1cc#	fu	4g#]	が
8FF#	.	.	.	.	.	.	.	.	.
8FF#	.	.	.	.	.	.	.	8r	.
8FF#J	.	.	.	.	.	.	.	8e	ま
8FF#L	2A	.	.	.	.	.	.	8eL	っ
8FF#	.	.	.	.	.	.	.	8B	す
8FF#	.	.	.	.	.	.	.	8e	ぐ
8FF#J	.	.	.	.	.	.	.	8f#J	に
=81	=81	=81	=81	=81	=81	=81	=81	=81	=81
8GG#L	2d#	.	1f#	uh	.	1b	uh	4g#	き
8GG#	.	.	.	.	.	.	.	.	.
8GG#	.	.	.	.	.	.	.	4a	み
8GG#J	.	.	.	.	.	.	.	.	.
8GG#L	2B	.	.	.	.	.	.	4b	へ
8GG#	.	.	.	.	.	.	.	.	.
8GG#	.	.	.	.	.	.	.	4e	と
8GG#J	.	.	.	.	.	.	.	.	.
=82	=82	=82	=82	=82	=82	=82	=82	=82	=82
8AAL	1c#	oh	4r	.	.	2a	ha	8eL	と
8AA	.	.	.	.	.	.	.	8c#	ど
8AA	.	.	2.e	oh	.	.	.	8e	け
8AAJ	.	.	.	.	.	.	.	8c#J	に
8AAL	.	.	.	.	.	4a	oh	4e	行
8AA	.	.	.	.	.	.	.	.	.
8AA	.	.	.	.	.	4cc#	oh	8g#L	く
8AAJ	.	.	.	.	.	.	.	8g#J	よ
=83	=83	=83	=83	=83	=83	=83	=83	=83	=83
8.BBL	2d#	ha	8.bL	ta	.	1b	ha	2f#	ー
[16FF#Jk	.	.	[16f#Jk	la	.	.	.	.	.
8FF#L]	.	.	8f#L]	.	.	.	.	.	.
8BBJ	.	.	8g#J	.	.	.	.	.	.
8.BBL	2e	ah	8.aL	.	.	.	.	2r	.
[16BBJk	.	.	[16g#Jk	.	.	.	.	.	.
8BBL]	.	.	8g#L]	.	.	.	.	.	.
8BBJ	.	.	8aJ	.	.	.	.	.	.
=84	=84	=84	=84	=84	=84	=84	=84	=84	=84
*k[b-]	*k[b-]	*	*k[b-]	*	*	*k[b-]	*	*k[b-]	*
8.CL	2e	.	2g	ha	.	8.ccL	ta	1r	.
[16CJk	.	.	.	.	.	[16gJk	la	.	.
8CL]	.	.	.	.	.	8gL]	.	.	.
8CJ	.	.	.	.	.	8aJ	.	.	.
8.CL	2d	.	2f	ah	.	8.b-L	.	.	.
[16CJk	.	.	.	.	.	[16aJk	.	.	.
8CL]	.	.	.	.	.	8aL]	.	.	.
8CJ	.	.	.	.	.	8b-J	.	.	.
=85	=85	=85	=85	=85	=85	=85	=85	=85	=85
2.C	2.c	.	2.e	uh	.	8r	.	4r	.
.	.	.	.	.	.	8ccL	ど	.	.
.	.	.	.	.	.	8cc	こ	2r	.
.	.	.	.	.	.	8aJ	ま	.	.
.	.	.	.	.	.	8ddL	で	.	.
.	.	.	.	.	.	8ccJ	も	.	.
4r	4r	.	4r	.	.	4r	.	4c	オウ
=86	=86	=86	=86	=86	=86	=86	=86	=86	=86
4FF	4cc	.	4cc	.	.	4cc	.	4cc	ベイ
4FF	4a	.	4a	.	.	4a	.	4a	ベイ
4FF	4a	.	4a	.	.	4a	.	4a	ベイ
4FF	8fL	.	8fL	.	.	8fL	.	8fL	きょ
.	8gJ	.	8gJ	.	.	8gJ	.	[8gJ	う
=87	=87	=87	=87	=87	=87	=87	=87	=87	=87
4AA	8gL	.	8gL	.	.	8gL	.	8gL]	.
.	8a	.	8a	.	.	8a	.	8a	も
4AA	8b-	.	8b-	.	.	8b-	.	8b-	あ
.	8b-J	.	8b-J	.	.	8b-J	.	8b-J	す
8AAL	4a	.	4a	.	.	4a	.	4a	も
8AAJ	.	.	.	.	.	.	.	.	.
4AA	8r	.	8r	.	.	8r	.	8r	.
.	8c	.	8c	.	.	8c	.	8c	ふ
=88	=88	=88	=88	=88	=88	=88	=88	=88	=88
4D	8fL	.	8fL	.	.	8fL	.	8fL	み
.	8g	.	8g	.	.	8g	.	8g	だ
4D	8a	.	8a	.	.	8a	.	8a	し
.	8b-J	.	8b-J	.	.	8b-J	.	8b-J	て
4D	8aL	.	8aL	.	.	8aL	.	8aL	ラ
.	8f	.	8f	.	.	8f	.	8f	ス
4D	8f	.	8f	.	.	8f	.	8f	ト
.	[8gJ	.	[8gJ	.	.	[8gJ	.	[8gJ	シン
=89	=89	=89	=89	=89	=89	=89	=89	=89	=89
4F	8gL]	.	8gL]	.	.	8gL]	.	8gL]	.
.	8gJ	.	8gJ	.	.	8gJ	.	8gJ	デ
4F	4cc	.	4cc	.	.	4cc	.	4cc	レ
8FL	4a	.	4a	.	.	4a	.	4a	ラ
8G	.	.	.	.	.	.	.	.	.
8F	8r	.	8r	.	.	8r	.	8r	.
8CJ	8c	.	8c	.	.	8c	.	8c	な
=90	=90	=90	=90	=90	=90	=90	=90	=90	=90
4BB-	8cc	.	8cc	.	.	8cc	.	8cc	き
.	4cc	.	4cc	.	.	4cc	.	4cc	わら
8BB-	.	.	.	.	.	.	.	.	.
4C	8cc	.	8cc	.	.	8cc	.	8cc	い
.	8ccL	.	8ccL	.	.	8ccL	.	8ccL	な
8CL	8b-	.	8b-	.	.	8b-	.	8b-	が
8C	8a	.	8a	.	.	8a	.	8a	ら
8CJ	8b-J	.	8b-J	.	.	8b-J	.	8b-J	み
=91	=91	=91	=91	=91	=91	=91	=91	=91	=91
4AA	8ccL	.	8ccL	.	.	8ccL	.	8ccL	る
.	8cc	.	8cc	.	.	8cc	.	8cc	そ
8AA	8dd	.	8dd	.	.	8dd	.	8dd	ら
4D	8fJ	.	8fJ	.	.	8fJ	.	8fJ	は
.	4f	.	4f	.	.	4f	.	4f	.
8DL	.	.	.	.	.	.	.	.	.
8DJ	4r	.	4r	.	.	4r	.	8r	.
8r	.	.	.	.	.	.	.	8c	さ
=92	=92	=92	=92	=92	=92	=92	=92	=92	=92
1r	1r	.	1r	.	.	1r	.	4b-	い
.	.	.	.	.	.	.	.	8aL	こ
.	.	.	.	.	.	.	.	8gJ	う
.	.	.	.	.	.	.	.	8gL	に
.	.	.	.	.	.	.	.	8f	.
.	.	.	.	.	.	.	.	8f	う
.	.	.	.	.	.	.	.	8gJ	つ
=93	=93	=93	=93	=93	=93	=93	=93	=93	=93
8r	8r	.	8r	.	.	8r	.	4a	く
4C	8cL	.	8cL	tu	.	8cL	.	.	.
.	8d	.	8d	ru	.	8d	.	8b-L	しい
8C	8eJ	.	8eJ	ru	.	8eJ	.	8aJ	ん
8CL	8fL	.	8fL	ru	.	8fL	.	4g	だ
8D	8g	.	8g	ru	.	8g	.	.	.
8E	8f	.	8a	ru	.	8a	.	4c	オウ
8CJ	8eJ	.	8b-J	ru	.	8ddJ	.	.	.
=94	=94	=94	=94	=94	=94	=94	=94	=94	=94
4FF	4c	.	4a	.	.	4ff	.	4cc	ベイ
8FFL	4c	.	4f	.	.	4cc	.	4a	ベイ
8FFJ	.	.	.	.	.	.	.	.	.
8FFL	4c	.	4f	.	.	4cc	.	4a	ベイ
8FF	.	.	.	.	.	.	.	.	.
8FF	8cL	.	8cL	.	.	8aL	.	8fL	む
8GGJ	[8c#XJ	.	[8eJ	.	.	[8b-J	.	[8gJ	ね
=95	=95	=95	=95	=95	=95	=95	=95	=95	=95
8AAL	8c#L]	.	8eL]	.	.	8b-L]	.	8gL]	.
8AA	8c#X	.	8f	.	.	8cc	.	8a	の
8AA	8c#	.	8g	.	.	8cc#X	.	8b-	な
8AAJ	8c#J	.	8gJ	.	.	8cc#J	.	8b-J	か
8AAL	4c#	.	4f	.	.	4ee	.	4a	の
8AA	.	.	.	.	.	.	.	.	.
8AA	8r	.	8r	.	.	8r	.	8r	.
8AAJ	8c#	.	8f	.	.	8f	.	8c	お
=96	=96	=96	=96	=96	=96	=96	=96	=96	=96
4D	8dL	.	8eL	.	.	8aL	.	8ccL	も
.	8d	.	8f	.	.	8b-	.	8a	い
8DL	8d	.	8f	.	.	8cc	.	8a	よ
8DJ	8dJ	.	8gJ	.	.	8ffJ	.	8aJ	た
8DL	8dL	.	8fL	.	.	8ccL	.	8gL	か
8E	8d	.	8f	.	.	8a	.	8f	く
8F	8d	.	8c	.	.	8a	.	8f	ま
8GGJ	[8e-XJ	.	[8fJ	.	.	[8b-J	.	[8gJ	い
=97	=97	=97	=97	=97	=97	=97	=97	=97	=97
8FFL	8e-L]	.	8fL]	.	.	8b-L]	.	8gL]	.
8FF	8e-XJ	.	8fJ	.	.	8b-J	.	8gJ	あ
8GG	4g	.	4a	.	.	4ff	.	4cc	が
8GGJ	.	.	.	.	.	.	.	.	.
8AAL	4f	.	4f	.	.	4cc	.	4a	れ
8AA	.	.	.	.	.	.	.	.	.
8FF	4en	ha	4dd	ha	.	4r	.	8r	.
8FFJ	.	.	.	.	.	.	.	8c	ぶ
=98	=98	=98	=98	=98	=98	=98	=98	=98	=98
4BB-	4.d	tu	2.cc	ah	.	4r	.	8cc	き
.	.	.	.	.	.	.	.	4cc	よう
8BB-	.	.	.	.	.	2r	.	.	.
4C	[8e	tu	.	.	.	.	.	8cc	な
.	2e]	.	.	.	.	.	.	8ccL	あ
8CL	.	.	.	.	.	.	.	8b-	い
8C	.	.	4r	.	.	4ff	fu	8a	を
8CJ	.	.	.	.	.	.	.	8b-J	か
=99	=99	=99	=99	=99	=99	=99	=99	=99	=99
4C#X	4.e	tu	4.g	tu	.	4.ee	uh	8ccL	か
.	.	.	.	.	.	.	.	8cc	げ
8C#	.	.	.	.	.	.	.	8ff	な
4D	[8d	tu	[8f	tu	.	[8cc	uh	8eeJ	が
.	2d]	.	2f]	.	.	4cc]	.	4ff	ら
8DL	.	.	.	.	.	.	.	.	.
8D	.	.	.	.	.	8aL	uh	8r	.
8DJ	.	.	.	.	.	[8ccJ	uh	8c	ず
=100	=100	=100	=100	=100	=100	=100	=100	=100	=100
4GG	1d	.	1b-	ha	.	1cc]	.	4b-	っ
8GGL	.	.	.	.	.	.	.	8aL	と
8GGJ	.	.	.	.	.	.	.	8gJ	か
8GGL	.	.	.	.	.	.	.	8gL	け
8GG	.	.	.	.	.	.	.	8f	ぬ
8GG	.	.	.	.	.	.	.	8f	け
8GGJ	.	.	.	.	.	.	.	8gJ	て
=101	=101	=101	=101	=101	=101	=101	=101	=101	=101
4C	1e	.	1g	ah	.	4r	.	4a	く
8CL	.	.	.	.	.	8ddL	つ	8b-L	つ
8CJ	.	.	.	.	.	8ccJ	よ	8aJ	よ
8CL	.	.	.	.	.	4b-	く	4g	く
8C	.	.	.	.	.	.	.	.	.
8C	.	.	.	.	.	8ccL	つ	8aL	つ
8BBnJ	.	.	.	.	.	8b-J	よ	8gJ	よ
=102	=102	=102	=102	=102	=102	=102	=102	=102	=102
[4BB-	1d	.	2.f	uh	.	1a	く	2f	く
8BB-L]	.	.	.	.	.	.	.	.	.
8BB-J	.	.	.	.	.	.	.	.	.
8r	.	.	.	.	.	.	.	8r	.
4BB-	.	.	.	.	.	.	.	4r	.
.	.	.	8r	.	.	.	.	.	.
8C	.	.	8f	ス	.	.	.	8f	ス
=103	=103	=103	=103	=103	=103	=103	=103	=103	=103
1D-X	1r	.	4dd-X	ター	.	1r	.	4ff	ター
.	.	.	8b-L	ラ	.	.	.	8dd-XL	ラ
.	.	.	8b-J	ブ	.	.	.	8dd-J	ブ
.	.	.	8a	レ	.	.	.	8dd-	レ
.	.	.	4g	イ	.	.	.	4b-	イ
.	.	.	8b-	ショ	.	.	.	8dd-	ショ
=104	=104	=104	=104	=104	=104	=104	=104	=104	=104
4F	[1c	ha	1a	ン	.	8f	tu	1cc	ン
.	.	.	.	.	.	8r	.	.	.
8r	.	.	.	.	.	8f	.	.	.
8C	.	.	.	.	.	8r	.	.	.
4C	.	.	.	.	.	8f	.	.	.
.	.	.	.	.	.	8r	.	.	.
8CL	.	.	.	.	.	8f	.	.	.
8E-XJ	.	.	.	.	.	8r	.	.	.
=105	=105	=105	=105	=105	=105	=105	=105	=105	=105
8r	1c]	.	[1f	ha	.	8f	tu	1r	.
8E-X	.	.	.	.	.	8r	.	.	.
8r	.	.	.	.	.	8f	.	.	.
8D	.	.	.	.	.	8r	.	.	.
4C	.	.	.	.	.	8fL	tu	.	.
.	.	.	.	.	.	8g	ru	.	.
4BB-	.	.	.	.	.	8f	ru	.	.
.	.	.	.	.	.	8gJ	ru	.	.
=106	=106	=106	=106	=106	=106	=106	=106	=106	=106
4F	8f	tu	1f]	.	.	[1a	ha	1r	.
.	8r	.	.	.	.	.	.	.	.
8r	8f	.	.	.	.	.	.	.	.
8C	8r	.	.	.	.	.	.	.	.
4C	8f	.	.	.	.	.	.	.	.
.	8r	.	.	.	.	.	.	.	.
8CL	8f	.	.	.	.	.	.	.	.
8E-XJ	8r	.	.	.	.	.	.	.	.
=107	=107	=107	=107	=107	=107	=107	=107	=107	=107
8r	8f	tu	8a	tu	.	1a]	.	8r	.
8E-X	8r	.	8r	.	.	.	.	2r	.
8r	8f	.	8a	tu	.	.	.	.	.
8D	8r	.	8r	.	.	.	.	.	.
4C	8fL	.	8aL	tu	.	.	.	.	.
.	8g	.	8b-	ru	.	.	.	8cL	na
4BB-	8f	.	8a	ru	.	.	.	8d	na
.	8gJ	.	8b-J	ru	.	.	.	8fJ	na
=108	=108	=108	=108	=108	=108	=108	=108	=108	=108
4F	8c	tu	1cc	ru	.	8r	.	8r	.
.	8r	.	.	.	.	8cL	na	2r	.
8r	8c	.	.	.	.	8d	na	.	.
8C	8r	.	.	.	.	8fJ	na	.	.
4C	8c	.	.	.	.	2r	.	.	.
.	8r	.	.	.	.	.	.	8cL	na
8CL	8c	.	.	.	.	.	.	8d	na
8E-XJ	8r	.	.	.	.	.	.	8cJ	na
=109	=109	=109	=109	=109	=109	=109	=109	=109	=109
8r	8c	tu	8r	.	.	8f	tu	8r	.
8E-X	8r	.	8cL	na	.	8r	.	2r	.
8r	8c	.	8d	na	.	8f	tu	.	.
8D	8r	.	8cJ	na	.	8r	.	.	.
4C	8c	.	2r	.	.	8fL	tu	.	.
.	8r	.	.	.	.	8g	ru	8cL	na
4BB-	8c	.	.	.	.	8f	ru	8d	na
.	8r	.	.	.	.	8gJ	ru	8fJ	na
=110	=110	=110	=110	=110	=110	=110	=110	=110	=110
4F	8r	.	8f	tu	.	8a	.	8r	.
.	8cL	na	8r	.	.	8r	.	2r	.
8r	8d	na	8f	.	.	8a	.	.	.
8C	8fJ	na	8r	.	.	8r	.	.	.
4C	2r	.	8f	.	.	8a	.	.	.
.	.	.	8r	.	.	8r	.	8cL	na
8CL	.	.	8f	.	.	8a	.	8d	na
8E-XJ	.	.	8r	.	.	8r	.	8cJ	na
=111	=111	=111	=111	=111	=111	=111	=111	=111	=111
8r	8r	.	8r	.	.	8r	.	8r	.
8E-X	8c	.	8g	cha	.	8cc	.	2r	.
8r	8r	.	8r	.	.	8r	.	.	.
8D	8c	.	8g	cha	.	8cc	.	.	.
8r	8r	.	8r	.	.	8r	.	.	.
8CL	8cL	.	8fL	.	.	8aL	.	8cL	.
8D	8d	.	8g	.	.	8b-	.	8d	.
8FFJ	8cJ	.	8fJ	.	.	8aJ	.	8fJ	.
==	==	==	==	==	==	==	==	==	==
*-	*-	*-	*-	*-	*-	*-	*-	*-	*-
